svg/系统配置1.svg

<svg width="128" height="128" viewBox="0 0 128 128" fill="none" xmlns="http://www.w3.org/2000/svg"><g filter="url(#filter0_d_0_1)"><rect x="4" width="120" height="120" rx="30" fill="url(#paint1_linear_0_1)"/><path d="M99.1597 47.8607C98.7327 46.5112 97.4517 45.604 96.0106 45.619C95.9801 45.619 95.9496 45.619 95.9191 45.619C92.2439 45.619 89.2549 42.68 89.2549 39.0438C89.2549 37.9942 89.4989 37.012 89.9411 36.1424C90.574 34.8753 90.2919 33.3533 89.2396 32.3937C85.0459 28.5476 79.9219 25.6686 74.226 24.1166C72.7392 23.7118 71.1608 24.394 70.4593 25.7436C69.3537 27.8878 67.0967 29.3348 64.5118 29.3348C61.927 29.3348 59.6776 27.8878 58.5643 25.7436C57.8628 24.3865 56.2921 23.7118 54.7976 24.1166C49.1094 25.6686 43.9854 28.5476 39.784 32.3937C38.7394 33.3533 38.4497 34.8753 39.0825 36.1424C39.5171 37.012 39.7688 37.9942 39.7688 39.0438C39.7688 42.68 36.7798 45.619 33.1045 45.619C33.074 45.619 33.0436 45.619 33.0131 45.619C31.5796 45.5965 30.2986 46.5112 29.8639 47.8607C28.7812 51.2495 28.2017 54.8557 28.2017 58.5894C28.2017 61.056 28.4533 63.4626 28.9413 65.7868C29.2768 67.3912 30.7866 68.4859 32.4412 68.3284C32.6623 68.3059 32.8834 68.2984 33.1045 68.2984C36.7798 68.2984 39.7688 71.2374 39.7688 74.8736C39.7688 76.493 39.1816 77.97 38.198 79.1096C37.1305 80.3616 37.1915 82.1985 38.3429 83.3831C42.6281 87.769 48.0419 91.0828 54.1266 92.8672C55.8193 93.362 57.6112 92.4323 58.1526 90.7754C59.0142 88.1214 61.5381 86.2095 64.5042 86.2095C67.4703 86.2095 69.9942 88.1214 70.8558 90.7754C71.3972 92.4323 73.1814 93.362 74.8818 92.8672C80.9742 91.0828 86.3879 87.769 90.6655 83.3831C91.8169 82.206 91.8779 80.3616 90.8104 79.1096C89.8268 77.9625 89.2396 76.493 89.2396 74.8736C89.2396 71.2374 92.2286 68.2984 95.9039 68.2984C96.1326 68.2984 96.3537 68.3059 96.5672 68.3284C98.2219 68.4859 99.7392 67.3912 100.067 65.7868C100.547 63.4551 100.807 61.0485 100.807 58.5894C100.807 54.8557 100.227 51.2495 99.1445 47.8607H99.1597ZM64.5195 72.5569C56.6276 72.5569 50.2226 66.2666 50.2226 58.4994C50.2226 50.7322 56.62 44.4419 64.5195 44.4419C72.4189 44.4419 78.8163 50.7322 78.8163 58.4994C78.8163 66.2666 72.4189 72.5569 64.5195 72.5569Z" fill="url(#paint2_linear_0_1)" stroke="url(#paint3_linear_0_1)"/><path opacity="0.8" d="M64 67C68.7339 67 72.5714 63.1944 72.5714 58.5C72.5714 53.8056 68.7339 50 64 50C59.2661 50 55.4286 53.8056 55.4286 58.5C55.4286 63.1944 59.2661 67 64 67Z" fill="url(#paint4_linear_0_1)"/></g><defs><filter id="filter0_d_0_1" x="0" y="0" width="128" height="128" filterUnits="userSpaceOnUse" color-interpolation-filters="sRGB"><feFlood flood-opacity="0" result="BackgroundImageFix"/><feColorMatrix in="SourceAlpha" type="matrix" values="0 0 0 0 0 0 0 0 0 0 0 0 0 0 0 0 0 0 127 0" result="hardAlpha"/><feOffset dy="4"/><feGaussianBlur stdDeviation="2"/><feComposite in2="hardAlpha" operator="out"/><feColorMatrix type="matrix" values="0 0 0 0 0 0 0 0 0 0 0 0 0 0 0 0 0 0 0.25 0"/><feBlend mode="normal" in2="BackgroundImageFix" result="effect1_dropShadow_0_1"/><feBlend mode="normal" in="SourceGraphic" in2="effect1_dropShadow_0_1" result="shape"/></filter><linearGradient id="paint1_linear_0_1" x1="64" y1="120" x2="64" y2="5.72204e-05" gradientUnits="userSpaceOnUse"><stop stop-color="#8E8E93"/><stop offset="1" stop-color="#E5E5EA"/></linearGradient><linearGradient id="paint2_linear_0_1" x1="64.5042" y1="24" x2="64.5042" y2="93" gradientUnits="userSpaceOnUse"><stop stop-color="#7E7E7E"/><stop offset="1" stop-color="#434445"/></linearGradient><linearGradient id="paint3_linear_0_1" x1="64.5042" y1="24" x2="64.5042" y2="93" gradientUnits="userSpaceOnUse"><stop stop-color="#EDEDED"/><stop offset="1" stop-color="#343434"/></linearGradient><linearGradient id="paint4_linear_0_1" x1="64" y1="50" x2="64" y2="67" gradientUnits="userSpaceOnUse"><stop stop-color="white"/><stop offset="1" stop-color="#D0D0D0"/></linearGradient><clipPath id="clip0_0_1"></clipPath></defs></svg>

<svg fill="none" viewBox="0 0 128 128"><g filter="url(#a)"><rect width="120" height="120" x="4" fill="url(#b)" rx="30"/><path fill="url(#c)" stroke="url(#d)" d="M99.16 47.86c-.427-1.349-1.708-2.256-3.15-2.241h-.09c-3.676 0-6.665-2.939-6.665-6.575 0-1.05.244-2.032.686-2.902a3.15 3.15 0 0 0-.701-3.748 36.34 36.34 0 0 0-15.014-8.277c-1.487-.405-3.065.277-3.767 1.627a6.67 6.67 0 0 1-5.947 3.59 6.68 6.68 0 0 1-5.948-3.59c-.701-1.357-2.272-2.032-3.766-1.627a36.44 36.44 0 0 0-15.014 8.277 3.16 3.16 0 0 0-.701 3.748c.434.87.686 1.852.686 2.902 0 3.636-2.99 6.575-6.664 6.575h-.092a3.25 3.25 0 0 0-3.15 2.242 35.2 35.2 0 0 0-1.661 10.728c0 2.467.251 4.874.74 7.198.335 1.604 1.845 2.699 3.5 2.541q.33-.032.663-.03c3.675 0 6.664 2.94 6.664 6.576a6.45 6.45 0 0 1-1.571 4.236 3.16 3.16 0 0 0 .145 4.273 36.4 36.4 0 0 0 15.784 9.484c1.692.495 3.484-.435 4.026-2.092.861-2.654 3.385-4.565 6.351-4.565s5.49 1.911 6.352 4.565c.541 1.657 2.325 2.587 4.026 2.092a36.3 36.3 0 0 0 15.783-9.484 3.16 3.16 0 0 0 .145-4.273 6.46 6.46 0 0 1-1.57-4.236c0-3.637 2.989-6.576 6.664-6.576q.344-.002.663.03c1.655.158 3.172-.937 3.5-2.541.48-2.332.74-4.739.74-7.198 0-3.733-.58-7.34-1.663-10.728zM64.52 72.558c-7.892 0-14.297-6.29-14.297-14.058s6.397-14.057 14.296-14.057c7.9 0 14.297 6.29 14.297 14.057S72.42 72.557 64.52 72.557Z"/><path fill="url(#e)" d="M64 67c4.734 0 8.571-3.806 8.571-8.5S68.734 50 64 50s-8.571 3.806-8.571 8.5S59.266 67 64 67" opacity=".8"/></g><defs><linearGradient id="b" x1="64" x2="64" y1="120" y2="0" gradientUnits="userSpaceOnUse"><stop stop-color="#8E8E93"/><stop offset="1" stop-color="#E5E5EA"/></linearGradient><linearGradient id="c" x1="64.504" x2="64.504" y1="24" y2="93" gradientUnits="userSpaceOnUse"><stop stop-color="#7E7E7E"/><stop offset="1" stop-color="#434445"/></linearGradient><linearGradient id="d" x1="64.504" x2="64.504" y1="24" y2="93" gradientUnits="userSpaceOnUse"><stop stop-color="#EDEDED"/><stop offset="1" stop-color="#343434"/></linearGradient><linearGradient id="e" x1="64" x2="64" y1="50" y2="67" gradientUnits="userSpaceOnUse"><stop stop-color="white"/><stop offset="1" stop-color="#D0D0D0"/></linearGradient><filter id="a" width="128" height="128" x="0" y="0" color-interpolation-filters="sRGB" filterUnits="userSpaceOnUse"><feFlood flood-opacity="0" result="BackgroundImageFix"/><feColorMatrix in="SourceAlpha" result="hardAlpha" type="matrix" values="0 0 0 0 0 0 0 0 0 0 0 0 0 0 0 0 0 0 127 0"/><feOffset dy="4"/><feGaussianBlur stdDeviation="2"/><feComposite in2="hardAlpha" operator="out"/><feColorMatrix type="matrix" values="0 0 0 0 0 0 0 0 0 0 0 0 0 0 0 0 0 0 0.25 0"/><feBlend in2="BackgroundImageFix" mode="normal" result="effect1_dropShadow_0_1"/><feBlend in="SourceGraphic" in2="effect1_dropShadow_0_1" mode="normal" result="shape"/></filter></defs></svg>
